static/img/decomposition.svg

<?xml version="1.0" encoding="UTF-8" standalone="no"?>
<!-- Generated by IcoMoon.io -->

<svg
   xmlns:dc="http://purl.org/dc/elements/1.1/"
   xmlns:cc="http://creativecommons.org/ns#"
   xmlns:rdf="http://www.w3.org/1999/02/22-rdf-syntax-ns#"
   xmlns:svg="http://www.w3.org/2000/svg"
   xmlns="http://www.w3.org/2000/svg"
   xmlns:sodipodi="http://sodipodi.sourceforge.net/DTD/sodipodi-0.dtd"
   xmlns:inkscape="http://www.inkscape.org/namespaces/inkscape"
   version="1.1"
   width="74.412788"
   height="58.006321"
   viewBox="0 0 74.412788 58.00632"
   id="svg2"
   inkscape:version="0.91 r"
   sodipodi:docname="decomposition.svg">
  <metadata
     id="metadata14">
    <rdf:RDF>
      <cc:Work
         rdf:about="">
        <dc:format>image/svg+xml</dc:format>
        <dc:type
           rdf:resource="http://purl.org/dc/dcmitype/StillImage" />
        <dc:title></dc:title>
      </cc:Work>
    </rdf:RDF>
  </metadata>
  <defs
     id="defs12" />
  <sodipodi:namedview
     pagecolor="#ffffff"
     bordercolor="#666666"
     borderopacity="1"
     objecttolerance="10"
     gridtolerance="10"
     guidetolerance="10"
     inkscape:pageopacity="0"
     inkscape:pageshadow="2"
     inkscape:window-width="1678"
     inkscape:window-height="1031"
     id="namedview10"
     showgrid="false"
     showguides="false"
     fit-margin-top="0"
     fit-margin-left="0"
     fit-margin-right="0"
     fit-margin-bottom="0"
     inkscape:zoom="1.84375"
     inkscape:cx="-38.144028"
     inkscape:cy="-14.781554"
     inkscape:window-x="0"
     inkscape:window-y="18"
     inkscape:window-maximized="0"
     inkscape:current-layer="g4518" />
  <g
     id="g4518"
     transform="matrix(0,-1,1,0,-4.6916199e-8,63.759053)">
    <path
       inkscape:connector-curvature="0"
       style="fill:#ffc8aa;fill-opacity:1;stroke:#6b3c41;stroke-width:2.65946031;stroke-linecap:round;stroke-linejoin:round;stroke-miterlimit:4;stroke-dasharray:none;stroke-opacity:1"
       id="path4"
       d="m 7.0824634,50.660142 22.4229136,0 0,22.422914 -22.4229136,0 0,-22.422914 z" />
    <path
       inkscape:connector-curvature="0"
       style="fill:#ebf6f9;fill-opacity:1;stroke:#6b3c41;stroke-width:2.65946031;stroke-linecap:round;stroke-linejoin:round;stroke-miterlimit:4;stroke-dasharray:none;stroke-opacity:1"
       id="path6"
       d="m 40.006409,50.660142 22.422914,0 0,22.422914 -22.422914,0 0,-22.422914 z" />
    <path
       inkscape:connector-curvature="0"
       style="fill:#ffaaaa;fill-opacity:1;stroke:#6b3c41;stroke-width:2.65946031;stroke-linecap:round;stroke-linejoin:round;stroke-miterlimit:4;stroke-dasharray:none;stroke-opacity:1"
       id="path8"
       d="m 40.345601,43.48481 -3.139208,2.690748 8.969165,0 0,-8.072248 -2.690751,2.242291 c 0,0 -2.690748,-2.242291 -4.036123,-4.484584 -1.345376,-2.24229 -2.242291,-4.933038 -2.242291,-7.623789 l 13.453749,0 0,-26.9074978 -31.39208,0 0,26.9074978 13.453748,0 c 0,2.690751 -0.896916,5.381499 -2.242291,7.623789 -1.345376,2.242293 -4.036124,4.484584 -4.036124,4.484584 l -2.690751,-2.242291 0,8.072248 8.969166,0 -3.139208,-2.690748 c 0,0 2.690749,-2.242291 4.484583,-5.3815 0.448457,-0.448459 0.448457,-0.896917 0.896917,-1.345374 0.448459,0.448457 0.448459,0.896915 0.896915,1.345374 1.793834,3.139209 4.484584,5.3815 4.484584,5.3815 z" />
    <circle
       style="opacity:1;fill:#ebf6f9;fill-opacity:1;fill-rule:evenodd;stroke:#000000;stroke-width:1.69679308;stroke-linecap:round;stroke-linejoin:round;stroke-miterlimit:4;stroke-dasharray:none;stroke-dashoffset:0;stroke-opacity:0"
       id="path4547"
       cx="14.565254"
       cy="-34.938141"
       transform="matrix(0,1,-1,0,0,0)"
       r="3.6516035" />
  </g>
</svg>

<?xml version="1.0" encoding="UTF-8" standalone="no"?>
<!DOCTYPE svg PUBLIC "-//W3C//DTD SVG 1.1//EN" "http://www.w3.org/Graphics/SVG/1.1/DTD/svg11.dtd">
<svg width="100%" height="100%" viewBox="0 0 75 59" version="1.1" xmlns="http://www.w3.org/2000/svg" xmlns:xlink="http://www.w3.org/1999/xlink" xml:space="preserve" xmlns:serif="http://www.serif.com/" style="fill-rule:evenodd;clip-rule:evenodd;stroke-linecap:round;stroke-linejoin:round;">
    <g transform="matrix(0,-1,1,0,-2,63.7591)">
        <g id="g4518">
            <g>
                <g id="path4" transform="matrix(0.627149,0,0,0.627149,13.4619,15.1661)">
                    <rect x="7.082" y="50.66" width="22.423" height="22.423" style="fill:rgb(255,200,170);fill-rule:nonzero;stroke:rgb(107,60,65);stroke-width:2.66px;"/>
                </g>
                <g id="path6" transform="matrix(0.627149,0,0,0.627149,13.4619,15.1661)">
                    <rect x="40.006" y="50.66" width="22.423" height="22.423" style="fill:rgb(235,246,249);fill-rule:nonzero;stroke:rgb(107,60,65);stroke-width:2.66px;"/>
                </g>
                <g id="path8" transform="matrix(0.627149,0,0,0.627149,13.4619,15.1661)">
                    <path d="M40.346,43.485L37.206,46.176L46.176,46.176L46.176,38.103L43.485,40.346C43.485,40.346 40.794,38.103 39.449,35.861C38.103,33.619 37.206,30.928 37.206,28.237L50.66,28.237L50.66,1.33L19.268,1.33L19.268,28.237L32.722,28.237C32.722,30.928 31.825,33.619 30.48,35.861C29.134,38.103 26.443,40.346 26.443,40.346L23.753,38.103L23.753,46.176L32.722,46.176L29.583,43.485C29.583,43.485 32.273,41.243 34.067,38.103C34.516,37.655 34.516,37.206 34.964,36.758C35.413,37.206 35.413,37.655 35.861,38.103C37.655,41.243 40.346,43.485 40.346,43.485Z" style="fill:rgb(255,170,170);fill-rule:nonzero;stroke:rgb(107,60,65);stroke-width:2.66px;"/>
                </g>
                <g id="path4547" transform="matrix(0,0.627149,-0.627149,0,13.4619,15.1661)">
                    <circle cx="14.565" cy="-34.938" r="3.652" style="fill:rgb(235,246,249);stroke:black;stroke-opacity:0;stroke-width:1.7px;"/>
                </g>
            </g>
        </g>
    </g>
</svg>
